X: 159
T:Once I was Dead, Sir, but Now I am Alive
G:guising song
S:Katherine Campbell, The Fiddle in Scottish Culture, 2007
M:2/4
L:1/8
Q:1/4=100
K:EMin
z2 |A2  G>B|E2  E>E|G>G   G>A  |B2
z2 |cc  ce |d2  B>G|A>B   A>G  |E2
zE |G>G G>B|E>E E>E|GG    A2   |B2
zG |c>B c<e|d B2 G |A>B   A<G  |E2
B>A|G<G G<B|E<E EE |G>G   G<A  |B2
zB |cB  c<e|dB  zG |A/Bz/ A/Gz/|E2|]

This weird tune comes from a limited-circulation sheet published for
Alexander Campbell (later the editor of "Albyn's Anthology" of Highland
music) late in the 18th century.  It seems never to have been reprinted
since, and there's no indication of where Campbell got it, unless he
wrote it himself, which given his limited talents is unlikely.  It would
be a natural companion for one of the many reels in A major/mixolydian
hexatonic.

